X: 62
T:Y Derwydd
T:The Druid
M:6/8
L:1/8
Q:130
C:Trad
S:Cat's Claw
A:Wales
Z:brian_martin12345@yahoo.com
K:D
FGA AFA|BGB A3|Bcd efg|fed cBA|FGA AFA|BGB A3|!Bcd efg|f2e d3:||
afa afa|geg geg| fag fed|!ced cBA|afa afa|geg geg|fed cde|dAF|D3:||
